icons/svg/iq.svg

<svg xmlns="http://www.w3.org/2000/svg" viewBox="0 0 350 350"><switch><g><path fill="#fff" d="M59.872 60h230.256v230H59.872z"/><path d="M69.18 69.39h211.64v211.404H69.18z"/><radialGradient id="iq-a" cx="175" cy="175" r="96.5" gradientUnits="userSpaceOnUse"><stop offset=".086" stop-color="#f9c133"/><stop offset=".2" stop-color="#f79520"/></radialGradient><path fill="url(#iq-a)" stroke="#000" stroke-miterlimit="10" d="M78.5 78.5h193v193h-193z"/><radialGradient id="iq-b" cx="175" cy="175" r="96" gradientTransform="matrix(1 0 0 1.25 0 -43.75)" gradientUnits="userSpaceOnUse"><stop offset=".583" stop-color="#fbd778"/><stop offset=".724" stop-color="#fcdd79" stop-opacity=".662"/><stop offset=".905" stop-color="#feed7d" stop-opacity=".226"/><stop offset="1" stop-color="#fff87f" stop-opacity="0"/></radialGradient><path opacity=".6" fill="url(#iq-b)" d="M79 79h192v192H79z"/><g><path d="M262.44 99.39c-.296-2.024 4.441-4.452 4.927-4.684 2.42-1.151 4.823-1.826 4.823-1.826L277.25 82c-1.501.748-3.776 1.9-6.521 3.368-5.885 3.145-8.474 4.821-8.729 4.476-.377-.511 4.789-4.904 5.283-5.324a79.707 79.707 0 017.298-5.52L75.67 75.67l-2.5 4.16 42.205 34.514c3.147 2.849 3.47 3.797 3.25 4.156-.858 1.403-11.035-4.382-12.531-2.375-.913 1.225 1.877 4.727 2.344 5.313 8.002 10.042 52.008 40.119 69.313 51.813 0 0 64-63.5 87.75-67.87 4.043-.778 4.839-1.441 4.844-1.896.014-1.408-7.546-1.635-7.905-4.095zM137 136.984c-2.714-2.2-3.21-2.399-5.041-3.89-3.28-2.671-6.93-6.3-6.629-6.674.304-.379 4.787 2.383 8.753 5.851 4.559 3.987 7.703 8.267 7.479 8.479-.127.121-1.309-1.128-4.562-3.766zm12.08 11.936c-.934-.149-4-4.25-4-4.25 2.378.372 4.942 4.4 4 4.25zm-56-57.75c4.5.16 39.071 27.909 40.92 29.497 4.417 3.793 35.58 27.253 35.58 27.253-9.62-.88-76.5-56.75-76.5-56.75zm85.5 55.64s9.003-5.852 10.5-5.39c1.28.395-5.601 5.893-10.5 5.39zm18.34-8.81s18.251-11.844 21.08-11.58c3.979.372-14.896 10.497-21.08 11.58zM261.75 253.75c-2.25-4.25-87-55.75-87-55.75L73.17 257.75l2.08 18L273 277.5V267s-9-9-11.25-13.25zm-172.021 5.167A57.35 57.35 0 0178 264.5v-2.75a102.437 102.437 0 007.333-3.208c9.62-4.664 14.975-9.124 15.261-8.751.278.362-4.413 5.097-10.865 9.126zm86.501-54.867c-.76-.49-1.72-.51-2.5-.05-8.67 5.1-58.86 34.49-61.61 33.75-1-1.59 59.42-36.53 62.88-36.75 3.46-.22 31.03 18.13 33.5 20.62-2.15 1.77-26.48-13.82-32.27-17.57z"/></g><g><path d="M100.37 130.541a3428150.9 3428150.9 0 0074.568 53.084l.273 11.75-18.96 2.5c-2.065 2.358-17.198 19.055-41.875 18.517-23.55-.514-37.632-16.328-39.804-18.852l-45.321-61.79 71.119-5.209z"/><path d="M42.903 141.919l55.742-4.201 71.105 52.531-16.368.497c-10.359 14.253-27.141 21.814-43.548 19.42-17.439-2.545-27.296-15.292-29.366-18.101-12.522-16.714-25.043-33.43-37.565-50.146z" fill="#fff"/><path d="M98.502 147.422l41.59 29.852c2.005 4.471 1.598 7.793 1.242 9.392-2.224 9.981-15.935 13.176-17.832 13.618-5.196 1.211-9.394.764-11.835.382-13.628-2.132-25.043-13.059-27.833-15.833-3.64-3.619-7.534-8.789-8.884-16.6-1.231-7.123.536-13.009 1.676-15.983a49.084 49.084 0 0121.876-4.828z"/><path fill="#fff" d="M105.563 148.75V169l-7.188-5.25 2.5 35.5 2.625 1.66 1.125-20.41 11.125 13.625 1.25-39.25z"/><g><path d="M170.719 195.656l23.812 1.834c1.846 2.251 17.354 20.519 42.802 19.843 29.378-.781 44.378-26.075 45.167-27.458L322 135.75l-72.667-5.209-74.396 53.084-4.218 12.031z"/><path d="M308.595 142.422l-56.512-4.672-71.583 52.333 15.367.389c11.071 14.188 28.516 21.524 45.655 18.992 20.518-3.031 31.367-18.844 33.116-21.486l33.957-45.556z" fill="#fff"/><path d="M268.333 149.333a50.16 50.16 0 00-18.666.25l-40.917 28.663c.199 2.485 1.154 10.387 7.5 16.25 3.856 3.563 8.095 4.887 10.248 5.534 5.413 1.628 9.861 1.238 12.627.969 11.149-1.087 18.798-6.732 21.625-8.875 1.831-1.388 5.202-3.981 8.5-8.375 3.228-4.301 10.166-13.504 7.375-23.375-.532-1.881-2.25-6.73-8.292-11.041z"/><path fill="#fff" d="M244.438 148.497v20.25l7.187-5.25-2.5 35.5-2.625 1.66-1.125-20.41-11.125 13.625-1.25-39.25z"/></g></g></g></switch></svg>

<svg xmlns="http://www.w3.org/2000/svg" viewBox="0 0 350 350"><switch><g><path fill="#fff" d="M59.872 60H290.128V290H59.872z"/><path d="M69.18 69.39H280.82V280.794H69.18z"/><radialGradient id="a" cx="175" cy="175" r="96.5" gradientUnits="userSpaceOnUse"><stop offset=".086" stop-color="#f9c133"/><stop offset=".2" stop-color="#f79520"/></radialGradient><path fill="url(#a)" stroke="#000" stroke-miterlimit="10" d="M78.5 78.5H271.5V271.5H78.5z"/><radialGradient id="b" cx="175" cy="175" r="96" gradientTransform="matrix(1 0 0 1.25 0 -43.75)" gradientUnits="userSpaceOnUse"><stop offset=".583" stop-color="#fbd778"/><stop offset=".724" stop-color="#fcdd79" stop-opacity=".662"/><stop offset=".905" stop-color="#feed7d" stop-opacity=".226"/><stop offset="1" stop-color="#fff87f" stop-opacity="0"/></radialGradient><path opacity=".6" fill="url(#b)" d="M79 79H271V271H79z"/><path d="M262.44 99.39c-.296-2.024 4.441-4.452 4.927-4.684 2.42-1.151 4.823-1.826 4.823-1.826L277.25 82c-1.501.748-3.776 1.9-6.521 3.368-5.885 3.145-8.474 4.821-8.729 4.476-.377-.511 4.789-4.904 5.283-5.324 2.928-2.49 5.511-4.324 7.298-5.52L75.67 75.67l-2.5 4.16c14.068 11.505 28.137 23.009 42.205 34.514 3.147 2.849 3.47 3.797 3.25 4.156-.858 1.403-11.035-4.382-12.531-2.375-.913 1.225 1.877 4.727 2.344 5.313 8.002 10.042 52.008 40.119 69.313 51.813 0 0 64-63.5 87.75-67.87 4.043-.778 4.839-1.441 4.844-1.896C270.359 102.077 262.799 101.85 262.44 99.39zM137 136.984c-2.714-2.2-3.21-2.399-5.041-3.89-3.28-2.671-6.93-6.3-6.629-6.674.304-.379 4.787 2.383 8.753 5.851 4.559 3.987 7.703 8.267 7.479 8.479C141.435 140.871 140.253 139.622 137 136.984zM149.08 148.92c-.934-.149-4-4.25-4-4.25C147.458 145.042 150.022 149.07 149.08 148.92zM93.08 91.17c4.5.16 39.071 27.909 40.92 29.497 4.417 3.793 35.58 27.253 35.58 27.253C159.96 147.04 93.08 91.17 93.08 91.17zM178.58 146.81c0 0 9.003-5.852 10.5-5.39C190.36 141.815 183.479 147.313 178.58 146.81zM196.92 138c0 0 18.251-11.844 21.08-11.58C221.979 126.792 203.104 136.917 196.92 138zM261.75 253.75c-2.25-4.25-87-55.75-87-55.75L73.17 257.75l2.08 18L273 277.5V267C273 267 264 258 261.75 253.75zM89.729 258.917c-4.575 2.857-8.76 4.562-11.729 5.583v-2.75c1.784-.698 4.339-1.757 7.333-3.208 9.62-4.664 14.975-9.124 15.261-8.751C100.872 250.153 96.181 254.888 89.729 258.917zM176.23 204.05c-.76-.49-1.72-.51-2.5-.05-8.67 5.1-58.86 34.49-61.61 33.75-1-1.59 59.42-36.53 62.88-36.75 3.46-.22 31.03 18.13 33.5 20.62C206.35 223.39 182.02 207.8 176.23 204.05zM100.37 130.541c24.856 17.695 49.712 35.39 74.568 53.084.091 3.917.182 7.833.273 11.75-6.32.833-12.64 1.667-18.96 2.5-2.065 2.358-17.198 19.055-41.875 18.517-23.55-.514-37.632-16.328-39.804-18.852-15.107-20.597-30.214-41.193-45.321-61.79C52.957 134.014 76.663 132.277 100.37 130.541z"/><path d="M42.903,141.919c18.581-1.4,37.161-2.801,55.742-4.201 c23.702,17.51,47.403,35.021,71.105,52.531l0,0c-5.456,0.166-10.912,0.331-16.368,0.497 c-10.359,14.253-27.141,21.814-43.548,19.42c-17.439-2.545-27.296-15.292-29.366-18.101 C67.946,175.351,55.425,158.635,42.903,141.919z" fill="#fff"/><path d="M98.502,147.422c13.863,9.951,27.727,19.902,41.59,29.852c2.005,4.471,1.598,7.793,1.242,9.392 c-2.224,9.981-15.935,13.176-17.832,13.618c-5.196,1.211-9.394,0.764-11.835,0.382c-13.628-2.132-25.043-13.059-27.833-15.833 c-3.64-3.619-7.534-8.789-8.884-16.6c-1.231-7.123,0.536-13.009,1.676-15.983c2.575-1.236,5.893-2.552,9.875-3.5 C91.189,147.634,95.326,147.381,98.502,147.422z"/><path fill="#fff" d="M105.563 148.75L105.563 169 98.375 163.75 100.875 199.25 103.5 200.91 104.625 180.5 115.75 194.125 117 154.875z"/><path d="M170.719,195.656c7.937,0.611,15.875,1.223,23.812,1.834c1.846,2.251,17.354,20.519,42.802,19.843 c29.378-0.781,44.378-26.075,45.167-27.458c13.167-18.042,26.333-36.083,39.5-54.125c-24.222-1.736-48.444-3.473-72.667-5.209 c-24.799,17.695-49.597,35.39-74.396,53.084C173.531,187.635,172.125,191.646,170.719,195.656z"/><path d="M308.595,142.422c-18.837-1.557-37.674-3.114-56.512-4.672 c-23.861,17.444-47.722,34.889-71.583,52.333c5.122,0.13,10.245,0.259,15.367,0.389c11.071,14.188,28.516,21.524,45.655,18.992 c20.518-3.031,31.367-18.844,33.116-21.486C285.957,172.793,297.276,157.607,308.595,142.422z" fill="#fff"/><path d="M268.333,149.333c-2.565-0.45-5.723-0.798-9.333-0.75c-3.621,0.048-6.776,0.481-9.333,1 c-13.639,9.554-27.278,19.109-40.917,28.663c0.199,2.485,1.154,10.387,7.5,16.25c3.856,3.563,8.095,4.887,10.248,5.534 c5.413,1.628,9.861,1.238,12.627,0.969c11.149-1.087,18.798-6.732,21.625-8.875c1.831-1.388,5.202-3.981,8.5-8.375 c3.228-4.301,10.166-13.504,7.375-23.375C276.093,158.493,274.375,153.644,268.333,149.333z"/><path fill="#fff" d="M244.438 148.497L244.438 168.747 251.625 163.497 249.125 198.997 246.5 200.657 245.375 180.247 234.25 193.872 233 154.622z"/></g></switch></svg>
